X:7
%
T:North Tyne. WI.007
M:C
L:1/8
Q:1/2=80
C:"..is the Highland Fling"
B:Wm Irwin, 1838 MS, AGG's Transcription
R:.Fling
O:England
N:"_No key Sig in MS"
A:Lake District
N:AGG gave it key sig of G
Z:vmp.Chris Partington.2005
K:Gmin
D|GG/G/ GA FF/F/ FA|GG/G/ GA Bcdg|\
GG/G/ GA FF/F/ FA|BGAD DGG:|
|:G|BB/B/ dB fdbf|FF/F/ AF cFAF|\
BB/B/ dB fBda|bgaf dgga|
fddf ecce|dBBd cBAG|\
BABc Bdce|BGAF DGG:|

